packages/opendesign/src/icons/svgs/fill/star.svg

<?xml version="1.0" encoding="UTF-8"?>
<svg width="24px" height="24px" viewBox="0 0 24 24" version="1.1" xmlns="http://www.w3.org/2000/svg" xmlns:xlink="http://www.w3.org/1999/xlink">
    <title>star</title>
    <g id="star" stroke="none" stroke-width="1" fill="none" fill-rule="evenodd">
        <path d="M10.9911719,4.19677717 C11.266147,3.6396168 11.9407261,3.41086043 12.4978864,3.68583551 C12.6753778,3.77343273 12.8258079,3.90588398 12.9349425,4.06895506 L13.0088281,4.19677717 L14.8068067,7.83987984 C14.8477742,7.92288894 14.9174088,7.98679257 15.001194,8.02104383 L15.0891584,8.04502033 L19.1095609,8.62921901 C19.7244239,8.71856383 20.1504405,9.28943704 20.0610957,9.90430001 C20.0326336,10.1001733 19.9531504,10.2841705 19.8317851,10.4383554 L19.7330509,10.5481241 L16.8238604,13.383884 C16.7575737,13.4484976 16.718316,13.5344713 16.7116321,13.62474 L16.7160116,13.7158083 L17.4027784,17.7199656 C17.5078095,18.3323441 17.0965232,18.9139195 16.4841447,19.0189507 C16.2890628,19.0524098 16.0895094,19.0336751 15.9053669,18.9658955 L15.7704602,18.9059142 L12.1745029,17.0154075 C12.092568,16.9723318 11.9986709,16.9615629 11.9107548,16.9831007 L11.8254971,17.0154075 L8.22953977,18.9059142 C7.67958961,19.1950401 6.99938406,18.9836002 6.71025815,18.4336501 C6.61815299,18.2584556 6.57430539,18.0628797 6.58186442,17.8668048 L6.59722163,17.7199656 L7.28398837,13.7158083 C7.29963654,13.6245725 7.28086257,13.5319432 7.23321131,13.4549856 L7.17613963,13.383884 L4.26694906,10.5481241 C3.82203003,10.1144352 3.81292619,9.40218277 4.24661505,8.95726375 C4.3847728,8.81552848 4.55722688,8.71339066 4.74604113,8.65998922 L4.8904391,8.62921901 L8.9108416,8.04502033 C9.00244758,8.0317092 9.08474182,7.98523007 9.14320775,7.91612983 L9.19319326,7.83987984 L10.9911719,4.19677717 Z M12,5.5425 L10.5382974,8.50372841 C10.3301938,8.9253923 9.97290249,9.25052491 9.52587357,9.42336735 L9.32896894,9.48795623 L9.12653907,9.52943085 L5.8575,10.0035 L8.22315717,12.3097545 C8.55987582,12.637974 8.75868622,13.0782498 8.78492962,13.5568108 L8.76240086,13.9693759 L8.2035,17.2245 L11.1274854,15.6877104 C11.5436925,15.4688973 12.0238554,15.4158701 12.4871037,15.5387946 L12.6843672,15.6022788 L12.8725146,15.6877104 L15.795,17.2245 L15.2375991,13.9693759 C15.1581107,13.5059224 15.2560572,13.032874 15.516117,12.6302846 L15.6374518,12.4622934 L15.7768428,12.3097545 L18.141,10.0035 L14.8734609,9.52943085 C14.4081272,9.46181391 13.9884986,9.22248117 13.6859762,8.85074266 L13.5637016,8.68343429 L13.4617026,8.50372841 L12,5.5425 Z" id="path1" fill="#000000" fill-rule="nonzero"></path>
        <path d="M11.9928853,5 L11.999,5.014 L11.9995314,15.9708168 C11.71522,15.97424 11.4315958,16.0337463 11.1657433,16.149114 L11.0088647,16.2248424 L7.68064445,18 L8.34101769,14.4241723 C8.47378827,13.7052384 8.23393935,12.9679316 7.70359693,12.4647111 L7.70359693,12.4647111 L5,9.89937725 L8.72489524,9.43268061 C9.44576132,9.34236242 10.0729584,8.89576099 10.3941139,8.24409816 L10.3941139,8.24409816 L11.9928853,5 Z" id="path2" fill="#000000"></path>
        <path d="M18.9117245,4.9924787 L18.9178393,5.0064787 L18.9183706,15.9632955 C18.6340593,15.9667187 18.350435,16.026225 18.0845826,16.1415927 L17.9277039,16.2173211 L14.5994837,17.9924787 L15.259857,14.416651 C15.3926275,13.6977171 15.1527786,12.9604103 14.6224362,12.4571898 L14.6224362,12.4571898 L11.9188393,9.89185596 L15.6437345,9.42515931 C16.3646006,9.33484112 16.9917977,8.88823969 17.3129531,8.23657686 L17.3129531,8.23657686 L18.9117245,4.9924787 Z" id="path3" fill="#000000" transform="translate(15.418839, 11.492479) scale(-1, 1) translate(-15.418839, -11.492479) "></path>
    </g>
</svg>

<!-- Generated by IcoMoon.io -->
<svg version="1.1" xmlns="http://www.w3.org/2000/svg" width="24" height="24" viewBox="0 0 24 24">
<title>star</title>
<path d="M10.991 4.197c0.275-0.557 0.95-0.786 1.507-0.511 0.177 0.088 0.328 0.22 0.437 0.383l0.074 0.128 1.798 3.643c0.041 0.083 0.111 0.147 0.194 0.181l0.088 0.024 4.020 0.584c0.615 0.089 1.041 0.66 0.952 1.275-0.028 0.196-0.108 0.38-0.229 0.534l-0.099 0.11-2.909 2.836c-0.066 0.065-0.106 0.151-0.112 0.241l0.004 0.091 0.687 4.004c0.105 0.612-0.306 1.194-0.919 1.299-0.195 0.033-0.395 0.015-0.579-0.053l-0.135-0.060-3.596-1.891c-0.082-0.043-0.176-0.054-0.264-0.032l-0.085 0.032-3.596 1.891c-0.55 0.289-1.23 0.078-1.519-0.472-0.092-0.175-0.136-0.371-0.128-0.567l0.015-0.147 0.687-4.004c0.016-0.091-0.003-0.184-0.051-0.261l-0.057-0.071-2.909-2.836c-0.445-0.434-0.454-1.146-0.020-1.591 0.138-0.142 0.311-0.244 0.499-0.297l0.144-0.031 4.020-0.584c0.092-0.013 0.174-0.060 0.232-0.129l0.050-0.076 1.798-3.643zM12 5.542l-1.462 2.961c-0.208 0.422-0.565 0.747-1.012 0.92l-0.197 0.065-0.202 0.041-3.269 0.474 2.366 2.306c0.337 0.328 0.536 0.768 0.562 1.247l-0.023 0.413-0.559 3.255 2.924-1.537c0.416-0.219 0.896-0.272 1.36-0.149l0.197 0.063 0.188 0.085 2.922 1.537-0.557-3.255c-0.080-0.463 0.018-0.936 0.279-1.339l0.121-0.168 0.139-0.153 2.364-2.306-3.268-0.474c-0.465-0.068-0.885-0.307-1.187-0.679l-0.122-0.167-0.102-0.18-1.462-2.961z"></path>
<path d="M11.993 5l0.006 0.014 0.001 10.957c-0.284 0.003-0.568 0.063-0.834 0.178l-0.157 0.076-3.328 1.775 0.66-3.576c0.133-0.719-0.107-1.456-0.637-1.959v0l-2.704-2.565 3.725-0.467c0.721-0.090 1.348-0.537 1.669-1.189v0l1.599-3.244z"></path>
<path d="M11.926 4.992l-0.006 0.014-0.001 10.957c0.284 0.003 0.568 0.063 0.834 0.178l0.157 0.076 3.328 1.775-0.66-3.576c-0.133-0.719 0.107-1.456 0.637-1.959v0l2.704-2.565-3.725-0.467c-0.721-0.090-1.348-0.537-1.669-1.189v0l-1.599-3.244z"></path>
</svg>
